X: 35774
T: Sally Gardens, The
R: reel
M: 4/4
K: Gmajor
|:DE|"G" G2 DG BDGB|dBeB dBAB|"G" (3ddd Bd eg{/a}ge|"D" dBAB GEDE|
"G" G2 DG BDGB|dBeB dBAB|"G" (3ddd Bd eg{/a}ge|"D" dBAB"G" G2:|
|:Bc|"G" dggf g2 dg|(3ggg bg ageg|"Am" eaag a2 eg|agbg ageg|
"G" dggf g2 dg|(3ggg bg ageg|"G" (3ddd Bd eg{/a}ge|"D" dBAB"G" G2||

